build/system/HourglassOutline.svg

<svg xmlns="http://www.w3.org/2000/svg" fill="none" viewBox="0 0 24 24" focusable="false"><path d="M0 0H24V24H0z"/><path fill="#74767B" fill-rule="evenodd" d="M7.61143 3.38281C6.70016 3.38281 5.96143 4.12154 5.96143 5.03281L5.96143 5.24883C5.96143 7.4856 6.87963 9.55531 8.64512 10.9072L9.94849 11.9313C10.0116 11.9826 10.0538 12.0674 10.0538 12.1708C10.0538 12.2741 10.0116 12.359 9.9485 12.4103L8.64188 13.4369C8.63287 13.444 8.62405 13.4513 8.61543 13.4589C6.99353 14.878 5.96143 16.921 5.96143 19.0927L5.96143 19.3088C5.96143 20.22 6.70015 20.9588 7.61142 20.9588L16.6491 20.9588C17.5604 20.9588 18.2991 20.22 18.2991 19.3088L18.2991 19.0927C18.2991 16.9371 17.279 14.7849 15.5315 13.4417L14.3274 12.4229L14.3136 12.4115C14.2496 12.3604 14.2068 12.275 14.2068 12.1708C14.2068 12.0674 14.249 11.9826 14.3121 11.9313L15.6187 10.9046C15.6277 10.8976 15.6365 10.8902 15.6451 10.8827C17.267 9.46353 18.2991 7.42062 18.2991 5.24883L18.2991 5.03281C18.2991 4.12154 17.5604 3.38281 16.6491 3.38281L7.61143 3.38281ZM7.26143 5.03281C7.26143 4.83951 7.41813 4.68281 7.61143 4.68281L16.6491 4.68281C16.8424 4.68281 16.9991 4.83951 16.9991 5.03281L16.9991 5.24883C16.9991 7.00033 16.1656 8.69397 14.8017 9.89328L13.5059 10.9113L13.5015 10.9149C12.7111 11.5472 12.7085 12.7841 13.4936 13.4203L14.7037 14.4442C14.7119 14.4512 14.7202 14.4579 14.7287 14.4644C15.314 14.9119 15.8015 15.4744 16.1728 16.1045L8.09168 16.1045C8.44874 15.4915 8.91102 14.93 9.45887 14.4483L10.7546 13.4302L10.7591 13.4267C11.552 12.7923 11.5521 11.5493 10.7591 10.9149L9.44508 9.88238L9.4383 9.8772C8.02572 8.79699 7.26143 7.12635 7.26143 5.24883L7.26143 5.03281ZM7.5194 17.4045C7.35098 17.9508 7.26143 18.5187 7.26143 19.0927L7.26143 19.3088C7.26143 19.5021 7.41813 19.6588 7.61142 19.6588L16.6491 19.6588C16.8424 19.6588 16.9991 19.5021 16.9991 19.3088L16.9991 19.0927C16.9991 18.5227 16.9112 17.9523 16.7442 17.4045L7.5194 17.4045Z"/></svg>

<svg xmlns="http://www.w3.org/2000/svg" fill="none" viewBox="0 0 24 24" focusable="false"><path fill="#74767B" fill-rule="evenodd" d="M7.61 3.38c-.91 0-1.65.74-1.65 1.65v.21c0 2.24.91 4.31 2.68 5.66l1.3 1.03c.07.05.11.13.11.24 0 .1-.04.18-.11.24l-1.3 1.02c-.01.01-.02.02-.03.02-1.62 1.42-2.65 3.47-2.65 5.64v.21c0 .91.74 1.65 1.65 1.65h9.03c.92 0 1.65-.74 1.65-1.65v-.21c0-2.16-1.02-4.31-2.76-5.65l-1.21-1.02-.01-.01a.29.29 0 0 1-.11-.24c0-.11.04-.19.11-.24l1.3-1.03c.01-.01.02-.01.03-.02 1.62-1.42 2.65-3.46 2.65-5.64v-.21c0-.91-.73-1.65-1.65-1.65zm-.35 1.65c0-.2.15-.35.35-.35h9.03c.2 0 .35.15.35.35v.21c0 1.76-.83 3.45-2.19 4.65l-1.3 1.02c-.79.63-.8 1.87-.01 2.51l1.21 1.02c.01.01.02.01.02.02.59.45 1.08 1.01 1.45 1.64H8.09c.35-.61.82-1.17 1.36-1.66l1.3-1.01v-.01c.8-.63.8-1.88 0-2.51L9.44 9.88l-.01-.01C8.02 8.79 7.26 7.12 7.26 5.24zm.25 12.37c-.16.55-.25 1.11-.25 1.69v.21c0 .2.15.35.35.35h9.03c.2 0 .35-.15.35-.35v-.21c0-.57-.08-1.14-.25-1.69z"/></svg>
